X: 1
T:Chinese Breakdown
M:4/4
L:1/4
C:
S:AB form
R:Key of D
K:D
||dABA|F2F2|dABA|G2G2|cABA|cABA|cABA|F2F2|dABA|FFFE|DDEF|G4|eeed|cccB|A
ABc|d2dA/2A/2||!||Af/2f/2fA/2A/2|Af/2f/2ff|ffef|g2g2|ee/2e/2ed|cc/2c/2cB
|!
|AA/2A/2BA|F2FA/2A/2|Af/2f/2fA/2A/2|Af/2f/2ff|ffef|!g2g2|ee/2e/2ed|cc/2c
